icon/io/document-lock-sharp.svg

<svg xmlns="http://www.w3.org/2000/svg" viewBox="0 0 512 512"><path d="M276 192h146.31a2 2 0 0 0 1.42-3.41L275.41 40.27a2 2 0 0 0-3.41 1.42V188a4 4 0 0 0 4 4ZM256 272c-8.82 0-16 6.28-16 14v18h32v-18c0-7.72-7.18-14-16-14Z"/><path d="M248 224a8 8 0 0 1-8-8V32H92a12 12 0 0 0-12 12v424a12 12 0 0 0 12 12h328a12 12 0 0 0 12-12V224Zm88 175.91A16.1 16.1 0 0 1 319.91 416H192.09A16.1 16.1 0 0 1 176 399.91V320c0-10 7-16 16-16h16v-18c0-25.36 21.53-46 48-46s48 20.64 48 46v18h16a15.8 15.8 0 0 1 16 16Z"/></svg>

<svg xmlns="http://www.w3.org/2000/svg" viewBox="0 0 512 512" height="1em" width="1em">
  <path d="M276,192H422.31a2,2,0,0,0,1.42-3.41L275.41,40.27A2,2,0,0,0,272,41.69V188A4,4,0,0,0,276,192Z"/>
  <path d="M256,272c-8.82,0-16,6.28-16,14v18h32V286C272,278.28,264.82,272,256,272Z"/>
  <path d="M248,224a8,8,0,0,1-8-8V32H92A12,12,0,0,0,80,44V468a12,12,0,0,0,12,12H420a12,12,0,0,0,12-12V224Zm88,175.91A16.1,16.1,0,0,1,319.91,416H192.09A16.1,16.1,0,0,1,176,399.91V320c0-10,7-16,16-16h16V286c0-25.36,21.53-46,48-46s48,20.64,48,46v18h16a15.8,15.8,0,0,1,16,16Z"/>
</svg>
